X:67
L:1/8
M:2/4
K:G
 D>G | BB B/A/G/B/ | AG E2 | GE ED | G>A BG/B/ | dd dB | ed B>G | AG ED | G3 :: d | e3 g | d3 B | 
 AG ED | G>A BG/B/ | dd dB | ed B>G | AG ED | G3 :|

